!!!COM: Music21
!!!OTL: Foliada
!!!OMV: pezas_foliadas_foliada-17_foliada-partitura-1.musicxml
**kern
*I"Bagpipes
*I'Bag
*clefG^2
*k[]
*M3/4
=1
!LO:TX:a:t=Copla
!LO:TX:a:t=Prestissimo
*MM220
!LO:TX:a:t=[quarter]=220
2r
8bL
8ccJ
=
8ddL
8eeJ
4dd
4ee;
=
2dd
[4cc
=
2.cc_
=
4cc]
4cc
4dd
=
8eeL
8ffJ
4ee
4ff;
=
2ee
[4dd
=
2.dd_
=
4dd]
4b
4cc
=
8ddL
8eeJ
4dd
4ee;
=
2dd
[4cc
!!linebreak:original
=
2.cc_
!!linebreak:original
=
4cc]
4cc
4dd
=
8eeL
8ffJ
4ee
4ff;
=
2ee
[4dd
=
2.dd_
=
4dd]
4b
4cc
=
8ddL
8eeJ
4dd
4ee;
=
2dd
[4cc
=
2.cc_
=
4cc]
4cc
4dd
=
8eeL
8ffJ
4ee
4ff;
=
2ee
[4dd
!!linebreak:original
=
2.dd_
!!linebreak:original
=
4dd]
4b
4cc
=
8ddL
8eeJ
4dd
4ee;
=
2dd
[4cc
=
2.cc_
=
2.cc_
=
2.cc_
=
4cc]
2r
==
*-
